/* XPM */
static char *continue[] = {
/* width height num_colors chars_per_pixel */
"    18    18        2            1",
/* colors */
". c #ffffff",
"# c #000000",
/* pixels */
"..................",
"..................",
"..##############..",
"..##############..",
"..................",
"..................",
"..##############..",
"...############...",
"...############...",
"....##########....",
".....########.....",
".....########.....",
"......######......",
".......####.......",
".......####.......",
"........##........",
"..................",
".................."
};
